packages/core/src/svgs/tokens/branded/TON.svg

<svg width="24" height="24" viewBox="0 0 24 24" fill="none" xmlns="http://www.w3.org/2000/svg">
<path d="M21.6235 6.6884L12.9059 20.5707C12.7998 20.7384 12.6529 20.8763 12.4792 20.972C12.3053 21.0677 12.1101 21.1178 11.9118 21.1178C11.7118 21.1182 11.5151 21.0677 11.3401 20.9709C11.1651 20.8742 11.0177 20.7344 10.9117 20.5649L2.36472 6.68252C2.12528 6.29341 1.99899 5.84528 2.00001 5.3884C2.01085 4.71389 2.28883 4.07122 2.77296 3.60143C3.2571 3.13163 3.90782 2.87308 4.58236 2.88251H19.4294C20.8471 2.88251 22 4.00017 22 5.38251C22 5.84134 21.8706 6.29428 21.6235 6.6884ZM4.46472 6.22369L10.8235 16.0296V5.23546H5.12942C4.47059 5.23546 4.17648 5.67075 4.46472 6.22369ZM13.1764 16.0296L19.5353 6.22369C19.8295 5.67075 19.5294 5.23546 18.8706 5.23546H13.1764V16.0296Z" fill="#0088CC"/>
</svg>

<svg xmlns="http://www.w3.org/2000/svg" width="24" height="24" fill="none" viewBox="0 0 24 24">
    <path fill="#08C" d="m21.624 6.688-8.718 13.883a1.177 1.177 0 0 1-1.994-.006L2.365 6.683A2.46 2.46 0 0 1 2 5.388a2.547 2.547 0 0 1 2.582-2.505H19.43C20.847 2.883 22 4 22 5.383c0 .458-.13.911-.377 1.305m-17.16-.464 6.36 9.806V5.235H5.128c-.658 0-.953.436-.664.989m8.712 9.806 6.36-9.806c.293-.553-.007-.989-.665-.989h-5.695z"/>
</svg>
